X:1
T:The Newmarket Polka
M:2/4
L:1/8
R:polka
K:A
e2c2 | BE A>c |BE AB | cB Bc | e2c2 | BE A>c | BE AB | cA AB ::
 ce a2 | gf fe | ce fg | fe (3cBA | ce a2 | gf fe | ce fg | a2 a2:|
